X: 0
T: St Sepulchre
Z: Public Domain
L: 1/4
M: 4/4
Q: 1/4=120
V: P1 name="Staff"
%%MIDI program 1 19
V: P2 name="Staff-2"
%%MIDI program 2 19
K: C
[V: P1] z3 C | [CG] [CA] [CG] C | [A,F] G E G | [A,C] [A,/D/][^C/E/] [A,DF] [A,DF] | [DF] [CE] [B,D] [DEB] | [CEc] [^A,CG] [=A,C=A] [A,EG] | [A,DF] [DA] [DG] [B,F] | [CE] [B,G] C [A,CD] | [CE] [B,D] Cz|]
[V: P2] z3 [C,E,] | [E,G,] F, [E,G,] [E,G,] | [D,F,] [B,,D,G,] [C,E,G,] [B,,D,G,] | [A,,E,] F,/[E,/G,/] D, C, | [B,,G,] [C,G,] [G,,G,] ^G,, | A,, E, F, ^C, | D, [C,F,] [B,,G,] [G,,G,] | [C,G,] [D,F,] [E,G,] F, | G, [G,,/G,/]F,/ [C,E,]z|]

